X:1
T:Title
%%score ( 1 2 ) ( 3 4 )
L:1/8
Q:1/4=95
M:6/8
K:Ab
V:1 treble nm="Grand Piano, Soprano"
V:2 treble 
V:3 bass nm="Choir Pad, Bass"
V:4 bass 
V:1
 [CA]2 [CA] [CA]2 [CA] | [Ec]2 [CA] [DF]3 | [CE][CE][CE] [DB][CA][B,G] | [CA]2 [DB] .[Ec]3 | %4
w: By~William~Augustine~Ogden * * *||||
 [CA]2 [CA] [CA]2 [CA] | [Ec]2 [CA] [DF]3 | [CE][CE][CE] [DB][CA][B,G] | [CA]6 | %8
w: ||||
 [Ec]2 [Ec] [Ec]2 [Ec] | [Fd]2 [Ec] [Ec] .[DB]2 | [CA]2 [FA] [FA]2 [FA] | [Ac]2 [FA] [FA] .[=EG]2 | %12
w: ||||
 F2 [DF] [FA][EG][DF] | [CE]2 [CE] [EA]2 [FB] | [Ec][Ec][Ec] [DB][CA][B,G] | [CA]6 | %16
w: ||||
 [Ec]2 [Ec] ed[Ec] | [EB]2 [Ec] .[Ed]3 | [EB]2 [EB] dc[DB] | [CA]2 [EB] .[Ec]3 | %20
w: ||||
 [DF]2 [DF] [FA][EG][DF] | [CE]2 [CE] [EA]2 [FB] | [Ec][Ec][Ec] [DB][CA][B,G] | [CA]6- | %24
w: ||||
 [CA]3 z3 |] %25
w: |
V:2
 x6 | x6 | x6 | x6 | x6 | x6 | x6 | x6 | x6 | x6 | x6 | x6 | x6 | x6 | x6 | x6 | z3 .E3 | x6 | %18
 z3 .E3 | x6 | x6 | x6 | x6 | x6 | x6 |] %25
V:3
 A,,3 A,3 | A,,3 D,3 | [E,A,][E,A,][E,A,] E,E,E, | [A,,E,]2 [A,,E,] .[A,,A,]3 | A,,3 A,3 | %5
 A,,3 D,3 | [E,A,][E,A,][E,A,] E,E,E, | [A,,E,]6 | [A,,A,]2 [A,,A,] [A,,A,]2 [A,,A,] | z3 .A,3 | %10
 [F,A,]2 [F,C] [F,C]2 [F,C] | [F,C]2 [F,C] C .B,2 | [D,A,]2 [D,A,] [D,A,]2 [D,A,] | %13
 [A,,A,]2 [A,,A,] A,2- [D,A,] | [E,A,][E,A,][E,A,] E,E,E, | [A,,E,]6 | A,2 A, CB,A, | %17
 [E,G,]2 [E,A,] .[E,B,]3 | z3 .B,3 | [F,A,]2 [E,G,] .A,3 | [D,A,]2 [D,A,] [D,A,]2 [D,A,] | z3 A,3 | %22
 [E,A,][E,A,][E,A,] E,E,E, | [A,,E,]6- | [A,,E,]3 z3 |] %25
V:4
 x6 | x6 | x6 | x6 | x6 | x6 | x6 | x6 | x6 | [A,,A,]2 [A,,A,] .E,- .[E,G,]2 | x6 | z3 .C,3 | x6 | %13
 z3 .C,3 | x6 | x6 | z3 .A,3 | x6 | [E,G,]2 [E,G,] E,-[E,A,][E,G,] | x6 | x6 | %21
 [A,,A,]2 [A,,A,] C,2 D, | x6 | x6 | x6 |] %25

